src/assets/maxPublic.svg

<svg width="41" height="40" viewBox="0 0 41 40" fill="none" xmlns="http://www.w3.org/2000/svg">
<mask id="mask0_1744_244" style="mask-type:alpha" maskUnits="userSpaceOnUse" x="0" y="0" width="41" height="40">
<rect x="0.199951" width="40" height="40" fill="#D9D9D9"/>
</mask>
<g mask="url(#mask0_1744_244)">
<path d="M6.8516 34.8396L5.36035 33.3483L11.4116 27.2971H6.03327V25.2029H14.997V34.1666H12.9029V28.7883L6.8516 34.8396ZM33.5483 34.8396L27.497 28.7883V34.1666H25.4029V25.2029H34.3666V27.2971H28.9883L35.0395 33.3483L33.5483 34.8396ZM6.03327 14.7971V12.7029H11.4116L5.36035 6.65164L6.8516 5.16039L12.9029 11.2116V5.83331H14.997V14.7971H6.03327ZM25.4029 14.7971V5.83331H27.497V11.2116L33.5654 5.14331L35.0566 6.63456L28.9883 12.7029H34.3666V14.7971H25.4029ZM20.217 22.5075C19.5229 22.5075 18.9285 22.2607 18.4341 21.7671C17.9397 21.2735 17.6924 20.6844 17.6924 20C17.6924 19.3155 17.9402 18.7265 18.4358 18.2329C18.931 17.7393 19.5266 17.4925 20.2224 17.4925C20.9027 17.4925 21.487 17.7393 21.9754 18.2329C22.4634 18.7265 22.7074 19.3155 22.7074 20C22.7074 20.6844 22.4635 21.2735 21.9758 21.7671C21.488 22.2607 20.9017 22.5075 20.217 22.5075Z" fill="white"/>
</g>
</svg>

<svg width="41" height="40" viewBox="0 0 41 40" fill="none" xmlns="http://www.w3.org/2000/svg"><mask id="mask0_1744_244" style="mask-type:alpha" maskUnits="userSpaceOnUse" x="0" y="0" width="41" height="40"><path fill="#d9d9d9" d="M.2 0h40v40H.2z"/></mask><g mask="url(#mask0_1744_244)"><path d="M6.852 34.84 5.36 33.348l6.052-6.05H6.033v-2.095h8.964v8.964h-2.094v-5.379zm26.696 0-6.051-6.052v5.379h-2.094v-8.964h8.964v2.094h-5.379l6.051 6.051zM6.033 14.797v-2.094h5.379L5.36 6.652 6.852 5.16l6.05 6.052V5.833h2.095v8.964zm19.37 0V5.833h2.094v5.379l6.068-6.069 1.492 1.492-6.069 6.068h5.379v2.094zm-5.186 7.71a2.43 2.43 0 0 1-1.783-.74A2.4 2.4 0 0 1 17.692 20q0-1.026.744-1.767a2.44 2.44 0 0 1 1.786-.74q1.02 0 1.753.74T22.707 20q0 1.026-.731 1.767a2.38 2.38 0 0 1-1.759.74" fill="#fff"/></g></svg>
